svg/strikethrough.svg

<svg xmlns="http://www.w3.org/2000/svg" viewBox="0 0 32 32"><path d="M7 6v2h8v8h-5v2h5v8h2v-8h5v-2h-5V8h8V6H7z"/></svg>

<svg xmlns="http://www.w3.org/2000/svg" viewBox="0 0 32 32" enable-background="new 0 0 32 32"><path d="M 7 6 L 7 8 L 15 8 L 15 16 L 10 16 L 10 18 L 15 18 L 15 26 L 17 26 L 17 18 L 22 18 L 22 16 L 17 16 L 17 8 L 25 8 L 25 6 L 7 6 z" color="#000" overflow="visible" enable-background="accumulate"/></svg>
